svgs/mobilism.svg

<svg width="192" height="192" viewBox="0 0 192 192" fill="none" xmlns="http://www.w3.org/2000/svg">
<path d="M26.5 169V24.4465C26.5 24.3586 26.5 24.3147 26.502 24.2775C26.5399 23.5894 27.0894 23.0399 27.7775 23.002C27.8147 23 27.8586 23 27.9465 23H39.6676C39.7318 23 39.764 23 39.7932 23.0012C40.3247 23.0242 40.7934 23.357 40.9905 23.8513C41.0013 23.8784 41.0119 23.9087 41.0331 23.9694L86.7745 154.904C87.1998 156.121 87.4124 156.731 87.5552 157.048C90.3976 163.379 99.362 163.449 102.302 157.162C102.45 156.847 102.671 156.241 103.116 155.03L151.199 23.9483C151.22 23.8888 151.231 23.8592 151.242 23.8326C151.444 23.3477 151.909 23.0237 152.433 23.0012C152.462 23 152.493 23 152.556 23H164.294C164.382 23 164.425 23 164.463 23.002C165.151 23.0399 165.7 23.5894 165.738 24.2775C165.741 24.3147 165.741 24.3586 165.741 24.4465V169" stroke="black" stroke-width="14" stroke-linecap="round" stroke-linejoin="round"/>
</svg>

<svg width="192" height="192" viewBox="0 0 192 192" fill="none" xmlns="http://www.w3.org/2000/svg"><path d="M26.5 169V24.447c0-.088 0-.132.002-.17a1.352 1.352 0 0 1 1.276-1.275c.037-.002.08-.002.169-.002h11.72l.126.001a1.352 1.352 0 0 1 1.24.968l45.742 130.935c.425 1.217.637 1.827.78 2.144 2.843 6.331 11.807 6.401 14.747.114.148-.315.369-.921.814-2.132l48.083-131.082a1.354 1.354 0 0 1 1.234-.947l.123-.001h11.738c.088 0 .131 0 .169.002a1.352 1.352 0 0 1 1.275 1.276c.003.037.003.08.003.169V169" stroke="#000" stroke-width="14" stroke-linecap="round" stroke-linejoin="round"/></svg>
